!!!OTL: OB ICH A  NUR A HIRTE BIN
!!!ARE: Europa, Mitteleuropa, Deutschland; Boehmen, Riesengebirge
!!!SCT: E1486
!!!YEM: Copyright 1995, estate of Helmut Schaffrath.
**kern
*ICvox
*Ivox
*M3/4
*k[b-e-]
*B-:
=1
{8f
8a
4b-
8a
8g
=2
8a
8b-
2cc}
=3
{8cc
8dd
8ee-
8cc
8dd
8b-
=4
8cc
8cc
2b-}
=5
{8.dd
16ee-
4ff
4dd
=6
8cc
8dd
4ee-
4cc}
=7
{8.dd
16ee-
4ff
4dd
=8
8cc
8dd
4ee-
4cc}
=9
{8f
8a
4b-
8a
8g
=10
8a
8b-
2cc}
=11
{8cc
8dd
8ee-
8cc
8dd
8b-
=12
8cc
8cc
2b-}
==
!!!AGN: Staende - Lied, Hirten -,  Schaefer - Lied
!!!ONB: ESAC (Essen Associative Code) Database: ERK3
!!!AMT: simple triple
!!!AIN: vox
!!!EED: Helmut Schaffrath
!!!EEV: 1.0
*-
